X: 3
T: Red Crow, The
C: Mairéad Ní Mhaonaigh
Z: ceili
S: https://thesession.org/tunes/184#setting50787
R: reel
M: 4/4
L: 1/8
K: Ador
|:"Am"A,/A,/A, EA, B,G,G,B,|A,/A,/A, EG FDEG|"C"AGED EA,CD|"D"ECDC "G"B,G,G,B,|
"Am"A,/A,/A, EA, B,G,G,B,|A,/A,/A, EG ^FDEG|"C"AGED EA,CE|1"Em"DB,G,B, A,/A,/A, A,B,:|2"G"DB,G,B, "Am"A,4||
|:"Am"A/A/A eA ceAc|eAce dcBA|"G "G/G/G dc BdGB|dGBd "Em"edcB|
[1"Am "A/A/A eA ceAc|eAcb "Dm"ageg| agec "E"d=fed|cABG A2EG:|
[2"F"A/A/A aA gA=fA|"D"A/A/A cA BAGB|"G"cBAG AGED|"Em"ECDB, A,4||

